Dominus_Dark_Funeral/scalable/apps/shotwell.svg

<?xml version="1.0" encoding="UTF-8" standalone="no"?><svg xmlns:dc="http://purl.org/dc/elements/1.1/" xmlns:cc="http://creativecommons.org/ns#" xmlns:rdf="http://www.w3.org/1999/02/22-rdf-syntax-ns#" xmlns="http://www.w3.org/2000/svg" xmlns:xlink="http://www.w3.org/1999/xlink" width="48" height="48" viewBox="0 0 12.7 12.7"><metadata><rdf:RDF><cc:Work><dc:format>image/svg+xml</dc:format><dc:type rdf:resource="http://purl.org/dc/dcmitype/StillImage"/><dc:title/></cc:Work></rdf:RDF></metadata><defs><linearGradient id="o"><stop offset="0" stop-color="#999"/><stop offset=".446" stop-color="#e6e6e6"/><stop offset="1" stop-color="#999"/></linearGradient><linearGradient id="n"><stop stop-color="#b3b3b9" offset="0"/><stop stop-color="#fff" offset="1"/></linearGradient><linearGradient id="l"><stop offset="0"/><stop offset=".4" stop-color="#1a1a1a"/><stop offset="1" stop-color="gray"/></linearGradient><linearGradient id="a"><stop offset="0" stop-color="#717171"/><stop offset=".5" stop-color="#fff"/><stop offset="1" stop-color="#7b7b7b"/></linearGradient><linearGradient id="b"><stop offset="0" stop-color="#a8a8a8"/><stop offset=".7" stop-color="#cbcbcb"/><stop offset="1" stop-color="#fff"/></linearGradient><linearGradient id="e"><stop offset="0" stop-color="#fff"/><stop offset=".74" stop-color="#b8b8b8"/><stop offset="1" stop-color="#343434"/></linearGradient><linearGradient id="f"><stop offset="0"/><stop offset="1" stop-color="#3f3f3f"/></linearGradient><linearGradient id="g"><stop offset="0"/><stop offset="1" stop-color="#4d4d4d"/></linearGradient><linearGradient id="h"><stop offset="0" stop-color="#fff"/><stop offset=".41" stop-color="#343434"/><stop offset="1"/></linearGradient><linearGradient id="c"><stop offset="0"/><stop offset="1" stop-opacity="0"/></linearGradient><linearGradient id="m"><stop offset="0" stop-color="#666"/><stop offset=".44" stop-color="#ccc"/><stop offset="1" stop-color="gray"/></linearGradient><linearGradient id="d"><stop offset="0" stop-color="#fff"/><stop offset="1" stop-color="#fff" stop-opacity="0"/></linearGradient><linearGradient id="i"><stop offset="0" stop-color="#404040"/><stop offset="1" stop-color="#42429f"/></linearGradient><linearGradient id="j"><stop offset="0" stop-color="#bfd9ff"/><stop offset="1" stop-color="#bfd9ff" stop-opacity="0"/></linearGradient><linearGradient id="k"><stop offset="0" stop-color="#d5d5d5"/><stop offset="1" stop-color="#fff"/></linearGradient><radialGradient xlink:href="#n" id="q" cx="79.29" cy="18.36" fx="79.29" fy="18.36" r="12" gradientTransform="matrix(.0947 -.05467 .04987 .08637 -3.593 3.9)" gradientUnits="userSpaceOnUse" spreadMethod="reflect"/><filter x="-.08" width="1.17" y="-.18" height="1.36" id="s"><feGaussianBlur stdDeviation="1.79"/></filter><linearGradient xlink:href="#d" id="r" gradientUnits="userSpaceOnUse" x1="76.1" y1="39.31" x2="76.1" y2="63.46"/><clipPath id="x"><path d="M191 60a9.98 9.98 0 0 0 0 12h16a9.98 9.98 0 0 0 0-12z" fill="url(#linearGradient4130)" stroke-width="2" stroke-linecap="round"/></clipPath><linearGradient xlink:href="#h" id="z" gradientUnits="userSpaceOnUse" x1="205.5" y1="62.5" x2="210" y2="62.5" spreadMethod="reflect"/><linearGradient xlink:href="#i" id="A" gradientUnits="userSpaceOnUse" x1="209.44" y1="57.68" x2="200.53" y2="68.57"/><radialGradient xlink:href="#j" id="B" gradientUnits="userSpaceOnUse" gradientTransform="matrix(1.68445 0 0 2.05878 -141.76 -64.82)" cx="207.12" cy="60.88" fx="207.9" fy="60.04" r="4.5"/><linearGradient xlink:href="#g" id="w" gradientUnits="userSpaceOnUse" gradientTransform="matrix(.31481 0 0 .31481 -13.167 -15.26)" x1="62" y1="60.58" x2="62" y2="74.03"/><linearGradient xlink:href="#f" id="v" gradientUnits="userSpaceOnUse" x1="62" y1="53.59" x2="62" y2="72.69" gradientTransform="matrix(.31481 0 0 .31481 -13.167 -26.276)"/><linearGradient xlink:href="#b" id="u" gradientUnits="userSpaceOnUse" x1="56" y1="66" x2="62.02" y2="66" spreadMethod="reflect" gradientTransform="matrix(.53546 0 0 .53546 -26.84 -29.821)"/><linearGradient xlink:href="#e" id="t" gradientUnits="userSpaceOnUse" x1="65.07" y1="63.99" x2="59.44" y2="69.63" gradientTransform="translate(-34.555 -29.004) scale(.56675)"/><linearGradient xlink:href="#h" id="y" gradientUnits="userSpaceOnUse" x1="205.5" y1="62.5" x2="210" y2="62.5" spreadMethod="reflect"/><linearGradient xlink:href="#o" id="p" x1="3.033" y1="-.308" x2="3.033" y2="13.079" gradientUnits="userSpaceOnUse"/></defs><path d="M6.35.093c-1.543 0-2.783.296-3.686.88C1.58 1.678 1.005 2.8 1.005 4.22c0 1.913 1.535 4.466 2.006 5.204a14.415 14.415 0 0 0 1.654 2.16c.672.698 1.209 1.023 1.685 1.023s1.013-.325 1.685-1.024c.53-.55 1.117-1.315 1.654-2.159.471-.738 2.006-3.291 2.006-5.204 0-1.42-.572-2.543-1.657-3.246C9.133.389 7.895.093 6.35.093z" fill="url(#p)"/><rect width="3.045" height=".636" x="4.828" y=".835" rx=".13" ry=".13" fill="none" stroke="#e6e6e6" stroke-width=".13" stroke-linecap="round" stroke-linejoin="round"/><rect ry=".13" rx=".13" y=".835" x="4.828" height=".636" width="3.045" fill="url(#q)"/><path transform="matrix(.14485 0 0 -.14485 -4.335 15.55)" d="M74 38a27.93 27.93 0 0 0-25.69 16.84l12.35 6.88A13.96 13.96 0 0 1 74 52a13.96 13.96 0 0 1 13.34 9.72l12.35-6.88A27.88 27.88 0 0 0 74 38z" opacity=".41" fill="url(#r)" filter="url(#s)"/><circle transform="rotate(-45)" cx=".602" cy="8.385" r="3.404" fill="url(#t)"/><circle cx="6.343" cy="5.508" r="3.204" fill="url(#u)"/><circle r="1.888" cy="-5.508" cx="6.343" transform="scale(1 -1)" opacity=".72" fill="url(#v)"/><path d="M4.855 4.392a1.888 1.888 0 0 0 0 2.26H7.86a1.888 1.888 0 0 0 0-2.289z" fill="url(#w)"/><g clip-path="url(#x)" transform="matrix(.18889 0 0 .18889 -31.246 -6.993)" stroke-width=".35"><ellipse ry="5.5" rx="4.5" cy="62.5" cx="205.5" transform="rotate(-45 252.103 279.236) scale(1.77778 1.45455)" fill="url(#y)"/><ellipse ry="5.5" rx="4.5" cy="62.5" cx="205.5" transform="rotate(-45 242.995 218.5) scale(1.55578 1.27292)"/><ellipse ry="5.5" rx="4.5" cy="62.5" cx="205.5" transform="matrix(.94295 -.94295 .7715 .7715 -43 211.56)" fill="url(#z)"/><ellipse ry="5.5" rx="4.5" cy="62.5" cx="205.5" transform="matrix(.7858 -.7858 .64292 .64292 -2.66 187.3)"/><ellipse ry="5.5" rx="4.5" cy="62.5" cx="205.5" transform="rotate(-45 215.642 36.048) scale(.88903 .72739)" fill="url(#A)"/><ellipse ry="5.5" rx="4.5" cy="62.5" cx="205.5" transform="matrix(.42988 -.2866 .35172 .23448 88.68 108.42)" opacity=".78" fill="url(#B)"/></g><path d="M6.35.1C4.81.1 3.57.39 2.66.97A3.67 3.67 0 0 0 1 4.22c0 1.91 1.54 4.47 2.01 5.2.54.85 1.13 1.61 1.65 2.16.68.7 1.21 1.03 1.69 1.03s1.01-.33 1.69-1.03c.52-.55 1.11-1.31 1.65-2.15.47-.74 2-3.3 2-5.21 0-1.42-.57-2.54-1.65-3.25A6.75 6.75 0 0 0 6.35.09zm0 .03C6.91.15 7.44.2 7.9.31a5.82 5.82 0 0 1 1.6.66 3.65 3.65 0 0 1 1.24 1.36c.14.27.25.57.32.88a4.6 4.6 0 0 1-.14 2.53c-.15.52-.36 1.04-.58 1.52-.44.97-.94 1.8-1.18 2.17-.54.84-1.12 1.6-1.65 2.15-.34.35-.64.61-.92.78a.96.96 0 0 1-.24.1.96.96 0 0 1-.24-.1 4.76 4.76 0 0 1-.92-.78 14.42 14.42 0 0 1-1.65-2.15c-.23-.37-.74-1.2-1.18-2.17-.22-.48-.43-1-.58-1.52a4.6 4.6 0 0 1-.14-2.52 3.73 3.73 0 0 1 .84-1.64 3.65 3.65 0 0 1 1.45-1c.27-.1.56-.2.87-.27.46-.1 1-.16 1.55-.18z" opacity=".2" fill="#1c1f24"/></svg>

<?xml version="1.0" encoding="UTF-8" standalone="no"?>
<svg
   xmlns:dc="http://purl.org/dc/elements/1.1/"
   xmlns:cc="http://creativecommons.org/ns#"
   xmlns:rdf="http://www.w3.org/1999/02/22-rdf-syntax-ns#"
   xmlns:svg="http://www.w3.org/2000/svg"
   xmlns="http://www.w3.org/2000/svg"
   xmlns:xlink="http://www.w3.org/1999/xlink"
   xmlns:sodipodi="http://sodipodi.sourceforge.net/DTD/sodipodi-0.dtd"
   xmlns:inkscape="http://www.inkscape.org/namespaces/inkscape"
   width="48"
   height="48"
   viewBox="0 0 12.7 12.7"
   version="1.1"
   id="svg144"
   sodipodi:docname="shotwell.svg"
   inkscape:version="0.92.4 (5da689c313, 2019-01-14)">
  <sodipodi:namedview
     pagecolor="#ffffff"
     bordercolor="#666666"
     borderopacity="1"
     objecttolerance="10"
     gridtolerance="10"
     guidetolerance="10"
     inkscape:pageopacity="0"
     inkscape:pageshadow="2"
     inkscape:window-width="1112"
     inkscape:window-height="480"
     id="namedview146"
     showgrid="false"
     inkscape:zoom="4.9166667"
     inkscape:cx="2.1355932"
     inkscape:cy="24"
     inkscape:window-x="0"
     inkscape:window-y="25"
     inkscape:window-maximized="0"
     inkscape:current-layer="svg144" />
  <metadata
     id="metadata2">
    <rdf:RDF>
      <cc:Work>
        <dc:format>image/svg+xml</dc:format>
        <dc:type
           rdf:resource="http://purl.org/dc/dcmitype/StillImage" />
        <dc:title></dc:title>
      </cc:Work>
    </rdf:RDF>
  </metadata>
  <defs
     id="defs110">
    <linearGradient
       id="o">
      <stop
         offset="0"
         stop-color="#999"
         id="stop4" />
      <stop
         offset=".446"
         stop-color="#e6e6e6"
         id="stop6" />
      <stop
         offset="1"
         stop-color="#999"
         id="stop8" />
    </linearGradient>
    <linearGradient
       id="n">
      <stop
         stop-color="#b3b3b9"
         offset="0"
         id="stop11" />
      <stop
         stop-color="#fff"
         offset="1"
         id="stop13" />
    </linearGradient>
    <linearGradient
       id="l">
      <stop
         offset="0"
         id="stop16" />
      <stop
         offset=".4"
         stop-color="#1a1a1a"
         id="stop18" />
      <stop
         offset="1"
         stop-color="gray"
         id="stop20" />
    </linearGradient>
    <linearGradient
       id="a">
      <stop
         offset="0"
         stop-color="#717171"
         id="stop23" />
      <stop
         offset=".5"
         stop-color="#fff"
         id="stop25" />
      <stop
         offset="1"
         stop-color="#7b7b7b"
         id="stop27" />
    </linearGradient>
    <linearGradient
       id="b">
      <stop
         offset="0"
         stop-color="#a8a8a8"
         id="stop30" />
      <stop
         offset=".7"
         stop-color="#cbcbcb"
         id="stop32" />
      <stop
         offset="1"
         stop-color="#fff"
         id="stop34" />
    </linearGradient>
    <linearGradient
       id="e">
      <stop
         offset="0"
         stop-color="#fff"
         id="stop37" />
      <stop
         offset=".74"
         stop-color="#b8b8b8"
         id="stop39" />
      <stop
         offset="1"
         stop-color="#343434"
         id="stop41" />
    </linearGradient>
    <linearGradient
       id="f">
      <stop
         offset="0"
         id="stop44" />
      <stop
         offset="1"
         stop-color="#3f3f3f"
         id="stop46" />
    </linearGradient>
    <linearGradient
       id="g">
      <stop
         offset="0"
         id="stop49" />
      <stop
         offset="1"
         stop-color="#4d4d4d"
         id="stop51" />
    </linearGradient>
    <linearGradient
       id="h">
      <stop
         offset="0"
         stop-color="#fff"
         id="stop54" />
      <stop
         offset=".41"
         stop-color="#343434"
         id="stop56" />
      <stop
         offset="1"
         id="stop58" />
    </linearGradient>
    <linearGradient
       id="c">
      <stop
         offset="0"
         id="stop61" />
      <stop
         offset="1"
         stop-opacity="0"
         id="stop63" />
    </linearGradient>
    <linearGradient
       id="m">
      <stop
         offset="0"
         stop-color="#666"
         id="stop66" />
      <stop
         offset=".44"
         stop-color="#ccc"
         id="stop68" />
      <stop
         offset="1"
         stop-color="gray"
         id="stop70" />
    </linearGradient>
    <linearGradient
       id="d">
      <stop
         offset="0"
         stop-color="#fff"
         id="stop73" />
      <stop
         offset="1"
         stop-color="#fff"
         stop-opacity="0"
         id="stop75" />
    </linearGradient>
    <linearGradient
       id="i">
      <stop
         offset="0"
         stop-color="#404040"
         id="stop78" />
      <stop
         offset="1"
         stop-color="#42429f"
         id="stop80" />
    </linearGradient>
    <linearGradient
       id="j">
      <stop
         offset="0"
         stop-color="#bfd9ff"
         id="stop83" />
      <stop
         offset="1"
         stop-color="#bfd9ff"
         stop-opacity="0"
         id="stop85" />
    </linearGradient>
    <linearGradient
       id="k">
      <stop
         offset="0"
         stop-color="#d5d5d5"
         id="stop88" />
      <stop
         offset="1"
         stop-color="#fff"
         id="stop90" />
    </linearGradient>
    <radialGradient
       xlink:href="#n"
       id="q"
       cx="79.29"
       cy="18.36"
       fx="79.29"
       fy="18.36"
       r="12"
       gradientTransform="matrix(0.0947,-0.05467,0.04987,0.08637,-3.593,3.9)"
       gradientUnits="userSpaceOnUse"
       spreadMethod="reflect" />
    <filter
       x="-.08"
       width="1.17"
       y="-.18"
       height="1.36"
       id="s">
      <feGaussianBlur
         stdDeviation="1.79"
         id="feGaussianBlur94" />
    </filter>
    <linearGradient
       xlink:href="#d"
       id="r"
       gradientUnits="userSpaceOnUse"
       x1="76.1"
       y1="39.31"
       x2="76.1"
       y2="63.46" />
    <clipPath
       id="x">
      <path
         d="M191 60a9.98 9.98 0 0 0 0 12h16a9.98 9.98 0 0 0 0-12z"
         fill="url(#linearGradient4130)"
         stroke-width="2"
         stroke-linecap="round"
         id="path98" />
    </clipPath>
    <linearGradient
       xlink:href="#h"
       id="z"
       gradientUnits="userSpaceOnUse"
       x1="205.5"
       y1="62.5"
       x2="210"
       y2="62.5"
       spreadMethod="reflect" />
    <linearGradient
       xlink:href="#i"
       id="A"
       gradientUnits="userSpaceOnUse"
       x1="209.44"
       y1="57.68"
       x2="200.53"
       y2="68.57" />
    <radialGradient
       xlink:href="#j"
       id="B"
       gradientUnits="userSpaceOnUse"
       gradientTransform="matrix(1.68445,0,0,2.05878,-141.76,-64.82)"
       cx="207.12"
       cy="60.88"
       fx="207.9"
       fy="60.04"
       r="4.5" />
    <linearGradient
       xlink:href="#g"
       id="w"
       gradientUnits="userSpaceOnUse"
       gradientTransform="matrix(0.31481,0,0,0.31481,-13.167,-15.26)"
       x1="62"
       y1="60.58"
       x2="62"
       y2="74.03" />
    <linearGradient
       xlink:href="#f"
       id="v"
       gradientUnits="userSpaceOnUse"
       x1="62"
       y1="53.59"
       x2="62"
       y2="72.69"
       gradientTransform="matrix(0.31481,0,0,0.31481,-13.167,-26.276)" />
    <linearGradient
       xlink:href="#b"
       id="u"
       gradientUnits="userSpaceOnUse"
       x1="56"
       y1="66"
       x2="62.02"
       y2="66"
       spreadMethod="reflect"
       gradientTransform="matrix(0.53546,0,0,0.53546,-26.84,-29.821)" />
    <linearGradient
       xlink:href="#e"
       id="t"
       gradientUnits="userSpaceOnUse"
       x1="65.07"
       y1="63.99"
       x2="59.44"
       y2="69.63"
       gradientTransform="matrix(0.56675,0,0,0.56675,-34.555,-29.004)" />
    <linearGradient
       xlink:href="#h"
       id="y"
       gradientUnits="userSpaceOnUse"
       x1="205.5"
       y1="62.5"
       x2="210"
       y2="62.5"
       spreadMethod="reflect" />
    <linearGradient
       xlink:href="#o"
       id="p"
       x1="3.033"
       y1="-.308"
       x2="3.033"
       y2="13.079"
       gradientUnits="userSpaceOnUse" />
  </defs>
  <path
     d="M 6.35,0.093 C 4.807,0.093 3.567,0.389 2.664,0.973 1.58,1.678 1.005,2.8 1.005,4.22 c 0,1.913 1.535,4.466 2.006,5.204 a 14.415,14.415 0 0 0 1.654,2.16 c 0.672,0.698 1.209,1.023 1.685,1.023 0.476,0 1.013,-0.325 1.685,-1.024 0.53,-0.55 1.117,-1.315 1.654,-2.159 C 10.16,8.686 11.695,6.133 11.695,4.22 11.695,2.8 11.123,1.677 10.038,0.974 9.133,0.389 7.895,0.093 6.35,0.093 Z"
     id="path112"
     style="fill:url(#p)"
     inkscape:connector-curvature="0" />
  <rect
     width="3.0450001"
     height="0.63599998"
     x="4.8280001"
     y="0.83499998"
     rx="0.13"
     ry="0.13"
     id="rect114"
     style="fill:none;stroke:#e6e6e6;stroke-width:0.13;stroke-linecap:round;stroke-linejoin:round" />
  <rect
     ry="0.13"
     rx="0.13"
     y="0.83499998"
     x="4.8280001"
     height="0.63599998"
     width="3.0450001"
     id="rect116"
     style="fill:url(#q)" />
  <path
     transform="matrix(0.14485,0,0,-0.14485,-4.335,15.55)"
     d="M 74,38 A 27.93,27.93 0 0 0 48.31,54.84 l 12.35,6.88 A 13.96,13.96 0 0 1 74,52 13.96,13.96 0 0 1 87.34,61.72 L 99.69,54.84 A 27.88,27.88 0 0 0 74,38 Z"
     id="path118"
     style="opacity:0.41000001;fill:url(#r);filter:url(#s)"
     inkscape:connector-curvature="0" />
  <circle
     transform="rotate(-45)"
     cx="0.602"
     cy="8.3850002"
     r="3.404"
     id="circle120"
     style="fill:url(#t)" />
  <circle
     cx="6.3429999"
     cy="5.5079999"
     r="3.204"
     id="circle122"
     style="fill:url(#u)" />
  <circle
     r="1.888"
     cy="-5.5079999"
     cx="6.3429999"
     transform="scale(1,-1)"
     id="circle124"
     style="opacity:0.72000002;fill:url(#v)" />
  <path
     d="m 4.855,4.392 a 1.888,1.888 0 0 0 0,2.26 H 7.86 a 1.888,1.888 0 0 0 0,-2.289 z"
     id="path126"
     style="fill:url(#w)"
     inkscape:connector-curvature="0" />
  <g
     clip-path="url(#x)"
     transform="matrix(0.18889,0,0,0.18889,-31.246,-6.993)"
     id="g140"
     style="stroke-width:0.34999999">
    <ellipse
       ry="5.5"
       rx="4.5"
       cy="62.5"
       cx="205.5"
       transform="matrix(1.2570803,-1.2570803,1.0285222,1.0285222,-123.61041,260.05007)"
       id="ellipse128"
       style="fill:url(#y)" />
    <ellipse
       ry="5.5"
       rx="4.5"
       cy="62.5"
       cx="205.5"
       transform="matrix(1.1001026,-1.1001026,0.90009036,0.90009036,-83.331244,235.82058)"
       id="ellipse130" />
    <ellipse
       ry="5.5"
       rx="4.5"
       cy="62.5"
       cx="205.5"
       transform="matrix(0.94295,-0.94295,0.7715,0.7715,-43,211.56)"
       id="ellipse132"
       style="fill:url(#z)" />
    <ellipse
       ry="5.5"
       rx="4.5"
       cy="62.5"
       cx="205.5"
       transform="matrix(0.7858,-0.7858,0.64292,0.64292,-2.66,187.3)"
       id="ellipse134" />
    <ellipse
       ry="5.5"
       rx="4.5"
       cy="62.5"
       cx="205.5"
       transform="matrix(0.62863914,-0.62863914,0.5143424,0.5143424,37.670294,163.04014)"
       id="ellipse136"
       style="fill:url(#A)" />
    <ellipse
       ry="5.5"
       rx="4.5"
       cy="62.5"
       cx="205.5"
       transform="matrix(0.42988,-0.2866,0.35172,0.23448,88.68,108.42)"
       id="ellipse138"
       style="opacity:0.77999998;fill:url(#B)" />
  </g>
  <path
     d="M 6.35,0.1 C 4.81,0.1 3.57,0.39 2.66,0.97 A 3.67,3.67 0 0 0 1,4.22 c 0,1.91 1.54,4.47 2.01,5.2 0.54,0.85 1.13,1.61 1.65,2.16 0.68,0.7 1.21,1.03 1.69,1.03 0.48,0 1.01,-0.33 1.69,-1.03 0.52,-0.55 1.11,-1.31 1.65,-2.15 0.47,-0.74 2,-3.3 2,-5.21 0,-1.42 -0.57,-2.54 -1.65,-3.25 A 6.75,6.75 0 0 0 6.35,0.09 Z m 0,0.03 C 6.91,0.15 7.44,0.2 7.9,0.31 a 5.82,5.82 0 0 1 1.6,0.66 3.65,3.65 0 0 1 1.24,1.36 c 0.14,0.27 0.25,0.57 0.32,0.88 A 4.6,4.6 0 0 1 10.92,5.74 C 10.77,6.26 10.56,6.78 10.34,7.26 9.9,8.23 9.4,9.06 9.16,9.43 8.62,10.27 8.04,11.03 7.51,11.58 7.17,11.93 6.87,12.19 6.59,12.36 A 0.96,0.96 0 0 1 6.35,12.46 0.96,0.96 0 0 1 6.11,12.36 4.76,4.76 0 0 1 5.19,11.58 14.42,14.42 0 0 1 3.54,9.43 C 3.31,9.06 2.8,8.23 2.36,7.26 2.14,6.78 1.93,6.26 1.78,5.74 A 4.6,4.6 0 0 1 1.64,3.22 3.73,3.73 0 0 1 2.48,1.58 3.65,3.65 0 0 1 3.93,0.58 C 4.2,0.48 4.49,0.38 4.8,0.31 5.26,0.21 5.8,0.15 6.35,0.13 Z"
     id="path142"
     inkscape:connector-curvature="0"
     style="opacity:0.2;fill:#1c1f24" />
</svg>
